simple/youtube.svg

<svg version="1.1" xmlns="http://www.w3.org/2000/svg" xmlns:xlink="http://www.w3.org/1999/xlink" viewBox="0 0 1024 1024">
	<path d="M229.376 51.2h55.296l37.888 142.336 35.84-142.336h56.32l-63.488 210.944v144.384h-55.296v-144.384l-66.56-210.944zM411.648 340.992c0 46.080 24.576 70.656 71.68 70.656 38.912 0 69.632-26.624 69.632-70.656v-128c0-40.96-30.72-70.656-69.632-70.656-43.008 0-71.68 28.672-71.68 70.656v128zM461.824 217.088c0-14.336 6.144-24.576 20.48-24.576 15.36 0 21.504 10.24 21.504 24.576v121.856c0 14.336-7.168 24.576-20.48 24.576s-21.504-11.264-21.504-24.576v-121.856zM685.056 144.384v198.656c-6.144 7.168-19.456 19.456-28.672 19.456-10.24 0-13.312-7.168-13.312-17.408v-200.704h-49.152v219.136c0 25.6 8.192 47.104 33.792 47.104 14.336 0 34.816-7.168 56.32-32.768v28.672h49.152v-262.144h-48.128zM613.376 681.984c3.072 4.096 5.12 11.264 5.12 19.456v129.024c0 8.192-1.024 13.312-4.096 17.408-5.12 7.168-16.384 6.144-23.552 3.072-3.072-2.048-7.168-5.12-11.264-9.216v-155.648c3.072-3.072 6.144-6.144 9.216-7.168 8.192-5.12 18.432-4.096 24.576 3.072zM770.048 676.864c-17.408 0-20.48 12.288-20.48 29.696v25.6h40.96v-25.6c-1.024-17.408-4.096-29.696-20.48-29.696zM911.36 861.184c0 61.44-50.176 111.616-111.616 111.616h-575.488c-61.44 0-111.616-50.176-111.616-111.616v-282.624c0-61.44 50.176-111.616 111.616-111.616h574.464c61.44 0 111.616 50.176 111.616 111.616l1.024 282.624zM301.056 599.040h54.272v-49.152h-160.768v49.152h54.272v289.792h52.224v-289.792zM487.424 638.976h-47.104v189.44c-6.144 7.168-18.432 18.432-27.648 18.432-10.24 0-12.288-7.168-12.288-16.384v-191.488h-46.080v208.896c0 51.2 34.816 51.2 59.392 36.864 9.216-5.12 18.432-13.312 26.624-23.552v27.648h46.080v-249.856zM665.6 698.368c0-33.792-11.264-62.464-45.056-62.464-16.384 0-30.72 10.24-40.96 23.552v-109.568h-47.104v338.944h47.104v-19.456c13.312 16.384 26.624 22.528 44.032 22.528 30.72 0 41.984-23.552 41.984-55.296v-138.24zM837.632 706.56c0-45.056-21.504-73.728-66.56-73.728-41.984 0-70.656 29.696-70.656 73.728v112.64c0 45.056 22.528 76.8 66.56 76.8 49.152 0 69.632-28.672 69.632-76.8v-18.432h-48.128v17.408c0 21.504-1.024 34.816-20.48 34.816-18.432 0-20.48-16.384-20.48-34.816v-47.104h89.088l1.024-64.512z"></path>
</svg>

<svg xmlns="http://www.w3.org/2000/svg" viewBox="0 0 1024 1024"><path d="M229.376 51.2h55.296l37.888 142.336L358.4 51.2h56.32l-63.488 210.944v144.384h-55.296V262.144L229.376 51.2zm182.272 289.792c0 46.08 24.576 70.656 71.68 70.656 38.912 0 69.632-26.624 69.632-70.656v-128c0-40.96-30.72-70.656-69.632-70.656-43.008 0-71.68 28.672-71.68 70.656v128zm50.176-123.904c0-14.336 6.144-24.576 20.48-24.576 15.36 0 21.504 10.24 21.504 24.576v121.856c0 14.336-7.168 24.576-20.48 24.576s-21.504-11.264-21.504-24.576V217.088zm223.232-72.704V343.04c-6.144 7.168-19.456 19.456-28.672 19.456-10.24 0-13.312-7.168-13.312-17.408V144.384H593.92V363.52c0 25.6 8.192 47.104 33.792 47.104 14.336 0 34.816-7.168 56.32-32.768v28.672h49.152V144.384h-48.128zm-71.68 537.6c3.072 4.096 5.12 11.264 5.12 19.456v129.024c0 8.192-1.024 13.312-4.096 17.408-5.12 7.168-16.384 6.144-23.552 3.072-3.072-2.048-7.168-5.12-11.264-9.216V686.08c3.072-3.072 6.144-6.144 9.216-7.168 8.192-5.12 18.432-4.096 24.576 3.072zm156.672-5.12c-17.408 0-20.48 12.288-20.48 29.696v25.6h40.96v-25.6c-1.024-17.408-4.096-29.696-20.48-29.696zm141.312 184.32c0 61.44-50.176 111.616-111.616 111.616H224.256c-61.44 0-111.616-50.176-111.616-111.616V578.56c0-61.44 50.176-111.616 111.616-111.616H798.72c61.44 0 111.616 50.176 111.616 111.616l1.024 282.624zM301.056 599.04h54.272v-49.152H194.56v49.152h54.272v289.792h52.224V599.04zm186.368 39.936H440.32v189.44c-6.144 7.168-18.432 18.432-27.648 18.432-10.24 0-12.288-7.168-12.288-16.384V638.976h-46.08v208.896c0 51.2 34.816 51.2 59.392 36.864 9.216-5.12 18.432-13.312 26.624-23.552v27.648h46.08V638.976zM665.6 698.368c0-33.792-11.264-62.464-45.056-62.464-16.384 0-30.72 10.24-40.96 23.552V549.888H532.48v338.944h47.104v-19.456c13.312 16.384 26.624 22.528 44.032 22.528 30.72 0 41.984-23.552 41.984-55.296v-138.24zm172.032 8.192c0-45.056-21.504-73.728-66.56-73.728-41.984 0-70.656 29.696-70.656 73.728V819.2c0 45.056 22.528 76.8 66.56 76.8 49.152 0 69.632-28.672 69.632-76.8v-18.432H788.48v17.408c0 21.504-1.024 34.816-20.48 34.816-18.432 0-20.48-16.384-20.48-34.816v-47.104h89.088l1.024-64.512z"/></svg>
